packages/icons/src/components/Icon/assets/default-solid/ticket.svg

<svg width="20" height="20" viewBox="0 0 20 20" fill="none" xmlns="http://www.w3.org/2000/svg">
<path fill-rule="evenodd" clip-rule="evenodd" d="M2 5.71422C2 4.92524 2.63959 4.28564 3.42857 4.28564H16.5714C17.3604 4.28564 18 4.92524 18 5.71422V8.02C18 8.22398 17.8913 8.4125 17.7147 8.51464C17.2008 8.81191 16.8571 9.36612 16.8571 9.99993C16.8571 10.6337 17.2008 11.188 17.7147 11.4852C17.8913 11.5874 18 11.7759 18 11.9799V14.2856C18 15.0746 17.3604 15.7142 16.5714 15.7142H3.42857C2.63959 15.7142 2 15.0746 2 14.2856V11.9799C2 11.7759 2.10873 11.5874 2.2853 11.4852C2.79919 11.188 3.14286 10.6337 3.14286 9.99993C3.14286 9.36612 2.79919 8.81191 2.2853 8.51464C2.10873 8.4125 2 8.22398 2 8.02V5.71422ZM13.4286 4.85707C13.7442 4.85707 14 5.11291 14 5.4285V5.99993C14 6.31552 13.7442 6.57136 13.4286 6.57136C13.113 6.57136 12.8571 6.31552 12.8571 5.99993V5.4285C12.8571 5.11291 13.113 4.85707 13.4286 4.85707ZM14 8.28564C14 7.97005 13.7442 7.71422 13.4286 7.71422C13.113 7.71422 12.8571 7.97005 12.8571 8.28564V8.85707C12.8571 9.17266 13.113 9.4285 13.4286 9.4285C13.7442 9.4285 14 9.17266 14 8.85707V8.28564ZM13.4286 10.5714C13.7442 10.5714 14 10.8272 14 11.1428V11.7142C14 12.0298 13.7442 12.2856 13.4286 12.2856C13.113 12.2856 12.8571 12.0298 12.8571 11.7142V11.1428C12.8571 10.8272 13.113 10.5714 13.4286 10.5714ZM14 13.9999C14 13.6843 13.7442 13.4285 13.4286 13.4285C13.113 13.4285 12.8571 13.6843 12.8571 13.9999V14.5714C12.8571 14.887 13.113 15.1428 13.4286 15.1428C13.7442 15.1428 14 14.887 14 14.5714V13.9999ZM5.42857 9.99993C5.42857 9.68434 5.68441 9.4285 6 9.4285H10C10.3156 9.4285 10.5714 9.68434 10.5714 9.99993C10.5714 10.3155 10.3156 10.5714 10 10.5714H6C5.68441 10.5714 5.42857 10.3155 5.42857 9.99993ZM6 11.7142C5.68441 11.7142 5.42857 11.9701 5.42857 12.2856C5.42857 12.6012 5.68441 12.8571 6 12.8571H8.28571C8.60131 12.8571 8.85714 12.6012 8.85714 12.2856C8.85714 11.9701 8.60131 11.7142 8.28571 11.7142H6Z" />
</svg>

<svg xmlns="http://www.w3.org/2000/svg" width="20" height="20" fill="none" viewBox="0 0 20 20">
    <path d="M2 5.714c0-.789.64-1.428 1.429-1.428H16.57c.79 0 1.429.64 1.429 1.428V8.02a.57.57 0 0 1-.285.495 1.713 1.713 0 0 0 0 2.97c.176.102.285.29.285.495v2.306c0 .789-.64 1.428-1.429 1.428H3.43c-.79 0-1.429-.64-1.429-1.428V11.98c0-.204.109-.393.285-.495a1.713 1.713 0 0 0 0-2.97A.57.57 0 0 1 2 8.02zm11.429-.857c.315 0 .571.256.571.571V6a.571.571 0 1 1-1.143 0v-.572a.57.57 0 0 1 .572-.57M14 8.286a.571.571 0 1 0-1.143 0v.571a.571.571 0 0 0 1.143 0zm-.571 2.285c.315 0 .571.256.571.572v.571a.571.571 0 1 1-1.143 0v-.571c0-.316.256-.572.572-.572M14 14a.571.571 0 1 0-1.143 0v.571a.571.571 0 0 0 1.143 0zm-8.571-4c0-.316.255-.572.571-.572h4a.571.571 0 0 1 0 1.143H6A.57.57 0 0 1 5.429 10M6 11.714a.571.571 0 0 0 0 1.143h2.286a.571.571 0 0 0 0-1.143z" clip-rule="evenodd"/>
</svg>
